X:311
T:Bilmem su felegin
Z:Jack Campin, http://www.campin.me.uk/
F:Jack Campin's Nine-Note Tunebook
% last edit 03-02-2013
B:Zulfu Livaneli, Gecmisten Gelecege Turkuler
M:C
L:1/8
Q:1/4=90
K:F
|:FG  AA  G2 A2|F2 GG E2 F2 |\
  FG  AA  G2 A2|F2 GG E2 F2:|\
  c>B A<A G2 A2|
                F2 GG E2 F2 |\
  FG  AA  G2 A2|F2 GG E2 F2 |\
|:FG  AA  GG AA|F2 GG E2 F2:|

